X:1
T:O Sole Mio
T:Eduardo di Capua
T: Giovanni Capurro
%%score 1 2 { ( 3 5 ) | 4 }
L:1/8
Q:1/4=70
M:2/4
K:G
V:1 treble nm="Stemme"
V:2 treble nm="Vokal"
V:3 treble nm="Part_1"
V:5 treble 
V:4 bass 
V:1
"^Andantino" z4 | z4 | z4 | z4 | z4 | z4 | z4 | z4 | z4 |: z d c B | A2 G2 | G A B G | F2 E2- | %13
w: |||||||||1.Che bel- la|co- sa|'na iur- na- to~'o|so- le,|
w: |||||||||2.Lu- ce- no~e|llas- tre|d'~'a fe- ne- sta|to- ia,|
w: |||||||||3.Quan- no fa|not- te~e'o|so- le se ne|scen- ne,|
 E F G A | F E E2- | E F G A | (ED) D2- | D d c B | A2 G2 | G A B G |{/G} F2 (E2 | %21
w: _ n'à- ria se-|re- na drop-|* po 'na tem-|pe- * sta!|_ pe' ll'a- ria|fre- sca|pa- re già 'na|fe- sta|
w: _ 'na la- van-|na- ra can-|* ta~e se ne|van- * ta,|_ e pe tra-|men- te|tor- ce, span ne~e|can- ta,|
w: _ mme ve- ne|qua- se 'na|_ ma- lin- cu-|ni- * a;|_ sot- to~'a fe-|ne- sta|to- ia re- star-|ri- a,|
 E)"^cresc." c B A | d B A G | A3 B | (3(A/B/A/) G3- | !fermata!G!mf! !fermata!g g f |{/f} d2 d2- | %27
w: _ Che bel- la|co- sa 'na iur-|na- ta~'e|so- * * le|_ Ma n'a- tu|so- le|
w: _ Lu- ce- no~'e|lla- stre d'a fe-|ne- sta|to- * * ia.|_ _ _ _||
w: _ qua- no fa|not- te~e'o so- le|se ne|scen- * * ne.|_ _ _ _||
 d f f e |{/e} c4- | !breath!c f f e |{/e} c2 c2- | !breath!c A B c | d4- | d2 z!f! d | _e4- | %35
w: _ cchiù bel- lo,~ohi-|ne',|_ 'o so- le|mi- o|_ sta 'nfron- te~a|te,|_ 'o|so-|
w: ||||||||
w: ||||||||
 e c g _e | d2 d2- |1 d!p! B A G | d4- | d B{/!fermata!A!fermata!B} !fermata!A3/2 F/ | G4- | %41
w: * le,~'o so- le|mi- io|_ sta 'nfron- te~a|te,|_ sta 'nfron- te~a|te.|
w: ||||||
w: ||||||
 G z :|2 !breath!d!p! B A G || d4- | !breath!d d !fermata!b3/2 a/ | g4- | g4- | g z z2 |] %48
w: _|* sta 'nfron- te~~a|te....|* sta 'nfron- te~a|te.|_||
w: |||||||
w: |||||||
V:2
 z4 | z4 | z4 | z4 | z4 | z4 | z4 | z4 | z4 |: z4 | z4 | z4 | z4 | z4 | z4 | z4 | z4 | z4 | z4 | %19
w: |||||||||||||||||||
 z4 | z4 | z4 | z4 | z4 | z4 | z!mf! !fermata!B B d |{/d} B2 B2- | B d d c |{/c} A4- | %29
w: ||||||Ma n'a- tu|so- le|_ cchiù bel- lo,~ohi-|ne',|
 !breath!A d d c |{/c} A2 A2- | !breath!A F G A | B4- | B2 z!f! B | G4- | G G G G | B2 B2- |1 %37
w: _ 'o so- le|mi- o|_ sta 'nfron- te~a|te,|_ 'o|so-|* le,~'o so- le|mi- io|
 B!p! G F E | F4- | F D !fermata!C3/2 B,/ | B,4- | B, z :|2 !breath!B!p! G F E || F4- | %44
w: _ sta 'nfron- te~a|te,|_ sta 'nfron- te~a|te.|_|* sta 'nfron- te~~a|te....|
 !breath!F F !fermata!c3/2 B/ | B4- | B4- | B z z2 |] %48
w: * sta 'nfron- te~a|te.|_||
V:3
 z4 | z (ggf |{/f} [Bd]4-) | [Bd](ffe |{/e} ([A-c]4) | [Ac])(ffe |{/f} (ed){/e} ([Fd][Ec]) | %7
 [DB]2 [CA]2 |!>(! [B,G]2) z2!>)! |: z (dcB | A2 G2) | (GABG | F2 (E2) | E) (FGA | (FE) E2-) | %15
 E (FGA | ED D2-) | D (dcB | A2 G2) | (GABG |{/G} F2 (E2) | E) (cBA | dBAG | A3 B | %24
 (3(A/B/A/) G3- | G)!mf! (ggf |{/f} [Bd]2) [Bd]2- | [Bd] (ffe |{/e} [Ac]4-) | [Ac] (ffe | %30
{/e} [Ac]2 [Ac]2-) | [Ac] ([FA]Bc | [Bd]4-) | [Bd]2 z d | [G_e-]4 | ([Ge]cg_e |!>(! d2) d2-!>)! |1 %37
 dBAG | [Fcd]4- | [Fcd]B({!fermata!A!fermata!B)} (!fermata![CFA]>F | [B,G]4-) | [B,G] z :|2 %42
 d!p! (BAG) || [Fcd]4- | [Fcd]2 !fermata![Fcd]2 | [GBg]4- | [GBg]4- | [GBg] z z2 |] %48
V:4
!mf! G,,>D,[G,B,]D, | G,,>D,[G,B,]D, | G,,>(D,[G,B,])D, | G,,>(D,[G,B,])D, | D,,>(D,[F,C])D, | %5
 D,,>(D,[F,C])D, | D,,>(D,[F,C])D, | D,,>(D,[F,C])D, | G,,>(D,[G,B,])D, |:!p! G,,>(D,[G,B,])D, | %10
 G,,>(D,[G,B,])D, | G,,>(D,[G,B,])D, | C,>(E,[A,C])E, | A,,>(E,[A,C])E, | D,,>(D,[F,C])D, | %15
 D,,>(D,[F,C])D, | G,,>(D,[G,B,])D, | G,,>(D,[G,B,])D, | G,,>(D,[G,B,])D, | G,,>(D,[G,B,])D, | %20
 C,>(E,[A,C])E, |"^cresc." A,,>(E,[A,C])E, | D,,>(D,[G,B,])D, | D,,>(D,[F,C])D, | %24
 G,,>(D,[G,B,])D, | G,,2 z2 | G,,>D,[G,B,]D, | G,,>(D,[G,B,])D, | D,,>(D,[F,C])D, | %29
 D,,>(D,[F,C])D, | D,,>(D,[F,C])D, | D,,>(D,[F,C])D, | G,,>(D,[G,B,])D, | G,,>(D,[G,B,])!f!D, | %34
 C,>(G,[C_E])G, | C,>(G,[C_E])G, | G,,>(D,[G,B,])D, |1 G,,>!p!(D,[G,B,])D, | D,,>(D,[F,C])D, | %39
 D,,>(D,!fermata![F,C]) z | G,,>(D,[G,B,])D, | G,, z :|2 G,,>(D,[G,B,])D, || D,,>(D,[F,C])D, | %44
 D,,>(D,!fermata![F,C]) z | G,,>(D,[G,B,])D, | G,,>(D,[G,B,])D, | G,,, z z2 |] %48
V:5
 x4 | x4 | x4 | x4 | x4 | x4 | F2 x2 | x4 | x4 |: x4 | x4 | x4 | x4 | x4 | x4 | x4 | x4 | x4 | x4 | %19
 x4 | x4 | x4 | x4 | x4 | x4 | x4 | x4 | x4 | x4 | x4 | x4 | x4 | x4 | x4 | x4 | x4 | x4 |1 x4 | %38
 x4 | x4 | x4 | x2 :|2 x4 || x4 | x4 | x4 | x4 | x4 |] %48

